X: 30
T: Mrs Hampdens Minuet
%R: minuet
B: Straight & Skillern "Minuets for the year 1777", p.30
F: http://www.vwml.org/browse/browse-collections-dance-tune-books/browse-straight1777
Z: 2014 John Chambers <jc:trillian.mit.edu>
M: 3/4
L: 1/16
K: A
% - - - - - - - - - - - - - - - - - - - - - - - - - - - - -
% Voice 1 formatted for a US-letter/A4 page size.
V: 1
|:\
AGAB A2E2C2E2 | e4 Td4 c4 | B2d2c2B2A2G2 | G8 A4 |\
A2c'a c'2a2e2c2 | G2bg b2g2e2B2 | {^d}c2BA G4 TF4 | E12 :|
|:\
Te^def e2=g2f2e2 | d2B2c2^A2 B4 | dcde d2f2e2d2 | c2A2B2G2 A4 |\
A2a2a2f2e2d2 | c2e2G2B2A2E2 | {g}f2ed c4 TB4 | A12 :|
% - - - - - - - - - - - - - - - - - - - - - - - - - - - - -
% Voice 2 preserves the original staff breaks.
V: 2 clef=bass middle=d
:|\
a8 A4 | c'4 b4 a4 | d4 e4 E4 | A2a2e2c2 A4 |\
a12 | g12 | a4 b4 B4 | e12 :|
|:\
c'8 ^a4 | b4 f4 B4 | b8 g4 | a4 e4 A4 |\
a12 | A4 B4 c4 | d4 e4 E4 | A4 c4 e4 :|
% - - - - - - - - - - - - - - - - - - - - - - - - - - - - -
